; generated by Slic3r 1.2.9 on 2016-02-08 at 14:35:28

; external perimeters extrusion width = 0.50mm
; perimeters extrusion width = 0.72mm
; infill extrusion width = 0.72mm
; solid infill extrusion width = 0.72mm
; top infill extrusion width = 0.72mm

M107
M104 S200 ; set temperature
G28 ; home all axes
G1 Z5 F5000 ; lift nozzle

M109 S200 ; wait for temperature to be reached
G21 ; set units to millimeters
G90 ; use absolute coordinates
M82 ; use absolute distances for extrusion
G92 E0
G1 Z0.350 F7800.000
G1 E-2.00000 F2400.00000
G92 E0
G1 X59.740 Y32.842 F7800.000
G1 E2.00000 F2400.00000
G1 X60.022 Y32.328 E2.01814 F1800.000
G1 X60.493 Y31.586 E2.04533
G1 X60.982 Y30.913 E2.07108
G1 X61.543 Y30.236 E2.09827
G1 X62.112 Y29.629 E2.12402
G1 X62.753 Y29.027 E2.15122
G1 X63.394 Y28.497 E2.17696
G1 X64.105 Y27.980 E2.20417
G1 X64.807 Y27.534 E2.22990
G1 X65.578 Y27.111 E2.25710
G1 X66.331 Y26.757 E2.28285
G1 X67.148 Y26.433 E2.31005
G1 X67.939 Y26.176 E2.33579
G1 X68.791 Y25.957 E2.36299
G1 X69.608 Y25.801 E2.38873
G1 X70.480 Y25.691 E2.41593
G1 X71.310 Y25.639 E2.44167
G1 X128.690 Y25.639 E4.21706
G1 X129.520 Y25.691 E4.24280
G1 X130.392 Y25.801 E4.27000 F1800.000
G1 X131.209 Y25.957 E4.29574
G1 X132.061 Y26.176 E4.32294
G1 X132.852 Y26.433 E4.34868
G1 X133.669 Y26.757 E4.37588
G1 X134.489 Y27.148 E4.40400
G1 X135.192 Y27.534 E4.42882
G1 X135.895 Y27.980 E4.45456
G1 X136.606 Y28.497 E4.48176
G1 X137.247 Y29.027 E4.50750
G1 X137.888 Y29.629 E4.53470
G1 X138.457 Y30.235 E4.56044
G1 X139.018 Y30.913 E4.58764
G1 X139.507 Y31.586 E4.61338
G1 X139.978 Y32.328 E4.64058
G1 X140.379 Y33.057 E4.66632
G1 X140.753 Y33.852 E4.69352
G1 X141.059 Y34.626 E4.71927
G1 X141.331 Y35.462 E4.74647
G1 X141.538 Y36.268 E4.77221
G1 X141.702 Y37.131 E4.79941
G1 X141.807 Y37.957 E4.82515
G1 X141.875 Y39.250 E4.86522
G1 X141.875 Y160.750 E8.62459
G1 X141.807 Y162.043 E8.66466
G1 X141.702 Y162.868 E8.69037
G1 X141.538 Y163.732 E8.71760
G1 X141.331 Y164.538 E8.74335
G1 X141.059 Y165.374 E8.77055
G1 X140.752 Y166.149 E8.79633
G1 X140.378 Y166.944 E8.82353
G1 X139.979 Y167.669 E8.84912
G1 X139.508 Y168.412 E8.87634
G1 X139.017 Y169.089 E8.90223
G1 X138.456 Y169.766 E8.92943
G1 X137.889 Y170.371 E8.95508
G1 X137.248 Y170.973 E8.98229
G1 X136.603 Y171.506 E9.00819
G1 X135.891 Y172.022 E9.03538
G1 X135.195 Y172.464 E9.06089
G1 X134.425 Y172.888 E9.08810
G1 X133.665 Y173.245 E9.11408
G1 X132.848 Y173.568 E9.14127
G1 X132.064 Y173.823 E9.16677
G1 X131.212 Y174.042 E9.19399
G1 X130.391 Y174.199 E9.21987
G1 X129.518 Y174.309 E9.24706
G1 X128.690 Y174.361 E9.27276
G1 X71.310 Y174.361 E11.04814
G1 X70.482 Y174.309 E11.07382
G1 X69.609 Y174.199 E11.10104
G1 X68.788 Y174.042 E11.12692
G1 X67.936 Y173.823 E11.15412
G1 X67.153 Y173.569 E11.17962
G1 X66.335 Y173.245 E11.20683
G1 X65.575 Y172.888 E11.23282
G1 X64.805 Y172.464 E11.26002
G1 X64.109 Y172.022 E11.28552
G1 X63.397 Y171.506 E11.31271
G1 X62.752 Y170.973 E11.33862
G1 X62.111 Y170.371 E11.36583
G1 X61.544 Y169.766 E11.39149
G1 X60.983 Y169.089 E11.41868
G1 X60.492 Y168.412 E11.44457
G1 X60.020 Y167.669 E11.47179
G1 X59.622 Y166.944 E11.49738
G1 X59.248 Y166.149 E11.52457
G1 X58.941 Y165.375 E11.55034
G1 X58.669 Y164.539 E11.57754
G1 X58.462 Y163.732 E11.60332
G1 X58.297 Y162.868 E11.63054
G1 X58.193 Y162.043 E11.65625
G1 X58.125 Y160.750 E11.69632
G1 X58.125 Y39.250 E15.45569
G1 X58.193 Y37.957 E15.49576
G1 X58.298 Y37.132 E15.52150
G1 X58.462 Y36.268 E15.54870
G1 X58.669 Y35.462 E15.57445
G1 X58.941 Y34.626 E15.60165
G1 X59.247 Y33.852 E15.62738
G1 X59.704 Y32.908 E15.65986
G1 E13.65986 F2400.00000
G92 E0
G1 X119.338 Y142.406 F7800.000
G1 E2.00000 F2400.00000
G1 X121.650 Y142.814 E2.07264 F1800.000
G1 X123.805 Y143.744 E2.14528
G1 X125.688 Y145.145 E2.21790
G1 X127.197 Y146.944 E2.29055
G1 X128.251 Y149.042 E2.36319
G1 X128.792 Y151.326 E2.43582
G1 X128.792 Y153.674 E2.50847
G1 X128.251 Y155.958 E2.58109
G1 X127.197 Y158.056 E2.65373
G1 X125.688 Y159.855 E2.72638
G1 X123.805 Y161.256 E2.79900
G1 X121.650 Y162.186 E2.87164
G1 X119.338 Y162.594 E2.94428
G1 X116.994 Y162.457 E3.01692
G1 X114.745 Y161.784 E3.08956
G1 X112.712 Y160.610 E3.16219
G1 X111.005 Y158.999 E3.23482
G1 X109.715 Y157.038 E3.30746
G1 X108.912 Y154.831 E3.38011
G1 X108.639 Y152.500 E3.45274
G1 X108.912 Y150.169 E3.52537
G1 X109.715 Y147.962 E3.59802
G1 X111.005 Y146.001 E3.67066
G1 X112.712 Y144.390 E3.74329
G1 X114.745 Y143.216 E3.81592
G1 X116.994 Y142.543 E3.88856
G1 X118.979 Y142.427 E3.95006
G1 X119.263 Y142.411 E3.95888 F1800.000
G1 X119.301 Y143.034 F7800.000
G1 X121.469 Y143.417 E4.02700 F1800.000
G1 X123.491 Y144.289 E4.09512
G1 X125.257 Y145.603 E4.16322
G1 X126.672 Y147.290 E4.23134
G1 X127.660 Y149.257 E4.29947
G1 X128.167 Y151.399 E4.36757
G1 X128.167 Y153.601 E4.43570
G1 X127.660 Y155.743 E4.50381
G1 X126.672 Y157.710 E4.57193
G1 X125.257 Y159.397 E4.64006
G1 X123.491 Y160.711 E4.70816
G1 X121.469 Y161.583 E4.77628
G1 X119.301 Y161.966 E4.84440
G1 X117.104 Y161.838 E4.91252
G1 X114.994 Y161.206 E4.98064
G1 X113.088 Y160.105 E5.04875
G1 X111.487 Y158.595 E5.11686
G1 X110.277 Y156.756 E5.18498
G1 X109.524 Y154.686 E5.25311
G1 X109.268 Y152.500 E5.32122
G1 X109.524 Y150.314 E5.38933
G1 X110.277 Y148.245 E5.45746
G1 X111.487 Y146.405 E5.52558
G1 X113.088 Y144.895 E5.59369
G1 X114.994 Y143.794 E5.66180
G1 X117.104 Y143.163 E5.72992
G1 X119.015 Y143.051 E5.78917
G1 X119.226 Y143.039 E5.79572 F1800.000
G1 X119.265 Y143.662 F7800.000
G1 X121.289 Y144.020 E5.85932 F1800.000
G1 X123.176 Y144.834 E5.92292
G1 X124.825 Y146.061 E5.98651
G1 X126.146 Y147.635 E6.05011
G1 X127.069 Y149.473 E6.11371
G1 X127.542 Y151.472 E6.17730
G1 X127.542 Y153.528 E6.24091
G1 X127.069 Y155.528 E6.30449
G1 X126.146 Y157.365 E6.36810
G1 X124.825 Y158.939 E6.43170
G1 X123.176 Y160.166 E6.49529
G1 X121.289 Y160.981 E6.55888
G1 X119.265 Y161.338 E6.62248
G1 X117.213 Y161.218 E6.68608
G1 X115.244 Y160.629 E6.74968
G1 X113.464 Y159.601 E6.81328
G1 X111.969 Y158.191 E6.87687
G1 X110.839 Y156.473 E6.94047
G1 X110.136 Y154.541 E7.00408
G1 X109.898 Y152.500 E7.06766
G1 X110.136 Y150.459 E7.13125
G1 X110.839 Y148.527 E7.19486
G1 X111.969 Y146.810 E7.25846
G1 X113.464 Y145.399 E7.32205
G1 X115.244 Y144.372 E7.38565
G1 X117.213 Y143.782 E7.44925
G1 X119.051 Y143.675 E7.50623
G1 X119.190 Y143.667 E7.51052 F1800.000
G1 X119.555 Y143.256 F7800.000
G1 X125.733 Y135.868 F7800.000
G1 X125.333 Y135.382 E7.52999 F1800.000
G1 X125.037 Y134.827 E7.54947
G1 X124.854 Y134.226 E7.56891
G1 X124.792 Y133.600 E7.58836
G1 X124.854 Y132.974 E7.60782
G1 X125.037 Y132.373 E7.62725
G1 X125.333 Y131.818 E7.64674
G1 X125.733 Y131.332 E7.66620
G1 X126.218 Y130.934 E7.68562
G1 X126.772 Y130.637 E7.70508
G1 X127.374 Y130.455 E7.72453
G1 X127.960 Y130.396 E7.74275 F1800.000
G1 X128.614 Y130.451 E7.76306
G1 X129.228 Y130.637 E7.78290
G1 X129.782 Y130.934 E7.80236
G1 X130.268 Y131.332 E7.82179
G1 X130.667 Y131.818 E7.84124
G1 X130.963 Y132.373 E7.86073
G1 X131.146 Y132.974 E7.88017
G1 X131.208 Y133.600 E7.89962
G1 X131.146 Y134.226 E7.91908
G1 X130.963 Y134.827 E7.93851
G1 X130.667 Y135.382 E7.95800
G1 X130.267 Y135.868 E7.97746
G1 X129.782 Y136.266 E7.99688
G1 X129.228 Y136.563 E8.01634
G1 X128.626 Y136.746 E8.03579
G1 X128.000 Y136.808 E8.05526
G1 X127.374 Y136.746 E8.07473
G1 X126.772 Y136.563 E8.09418
G1 X126.218 Y136.266 E8.11364
G1 X125.791 Y135.916 E8.13074
G1 X126.176 Y135.424 F7800.000
G1 X125.855 Y135.033 E8.14638 F1800.000
G1 X125.617 Y134.587 E8.16205
G1 X125.470 Y134.103 E8.17768
G1 X125.420 Y133.600 E8.19333
G1 X125.470 Y133.097 E8.20897
G1 X125.617 Y132.613 E8.22461
G1 X125.855 Y132.167 E8.24027
G1 X126.176 Y131.776 E8.25592
G1 X126.567 Y131.456 E8.27155
G1 X127.013 Y131.217 E8.28720
G1 X127.496 Y131.070 E8.30284
G1 X127.965 Y131.024 E8.31741 F1800.000
G1 X128.496 Y131.068 E8.33390
G1 X128.987 Y131.217 E8.34978
G1 X129.433 Y131.456 E8.36543
G1 X129.824 Y131.776 E8.38106
G1 X130.145 Y132.167 E8.39670
G1 X130.383 Y132.613 E8.41237
G1 X130.530 Y133.097 E8.42801
G1 X130.580 Y133.600 E8.44365
G1 X130.530 Y134.103 E8.45930
G1 X130.383 Y134.587 E8.47493
G1 X130.145 Y135.034 E8.49060
G1 X129.824 Y135.424 E8.50624
G1 X129.433 Y135.744 E8.52187
G1 X128.987 Y135.983 E8.53752
G1 X128.504 Y136.130 E8.55316
G1 X128.000 Y136.180 E8.56882
G1 X127.496 Y136.130 E8.58447
G1 X127.013 Y135.983 E8.60012
G1 X126.567 Y135.744 E8.61577
G1 X126.234 Y135.472 E8.62907
G1 X126.620 Y134.980 F7800.000
G1 X126.377 Y134.685 E8.64090 F1800.000
G1 X126.197 Y134.347 E8.65276
G1 X126.086 Y133.981 E8.66459
G1 X126.048 Y133.600 E8.67642
G1 X126.086 Y133.219 E8.68826
G1 X126.197 Y132.854 E8.70009
G1 X126.377 Y132.516 E8.71194
G1 X126.620 Y132.220 E8.72377
G1 X126.916 Y131.978 E8.73560
G1 X127.253 Y131.797 E8.74744
G1 X127.619 Y131.686 E8.75928
G1 X127.970 Y131.651 E8.77018 F1800.000
G1 X128.378 Y131.685 E8.78286
G1 X128.747 Y131.797 E8.79478
G1 X129.084 Y131.978 E8.80662
G1 X129.380 Y132.220 E8.81846
G1 X129.623 Y132.516 E8.83029
G1 X129.803 Y132.854 E8.84214
G1 X129.914 Y133.219 E8.85397
G1 X129.952 Y133.600 E8.86580
G1 X129.914 Y133.981 E8.87764
G1 X129.803 Y134.347 E8.88947
G1 X129.623 Y134.685 E8.90132
G1 X129.380 Y134.980 E8.91315
G1 X129.084 Y135.222 E8.92498
G1 X128.747 Y135.403 E8.93682
G1 X128.381 Y135.514 E8.94866
G1 X128.000 Y135.552 E8.96050
G1 X127.619 Y135.514 E8.97234
G1 X127.253 Y135.403 E8.98418
G1 X126.916 Y135.222 E8.99602
G1 X126.678 Y135.027 E9.00553
G1 X126.248 Y135.067 F7800.000
G1 X92.886 Y151.173 F7800.000
G1 X92.886 Y153.827 E9.08767 F1800.000
G1 X91.653 Y156.178 E9.16982
G1 X89.467 Y157.688 E9.25199
G1 X86.831 Y158.008 E9.33416
G1 X84.348 Y157.066 E9.41633
G1 X82.588 Y155.078 E9.49850
G1 X81.952 Y152.500 E9.58064
G1 X82.588 Y149.923 E9.66278
G1 X84.348 Y147.934 E9.74495
G1 X86.310 Y147.190 E9.80986
G1 X86.831 Y146.992 E9.82712 F1800.000
G1 X89.468 Y147.313 E9.90929
G1 X91.653 Y148.822 E9.99145
G1 X92.852 Y151.106 E10.07129
G1 X92.262 Y151.327 F7800.000
G1 X92.262 Y153.673 E10.14389 F1800.000
G1 X91.171 Y155.752 E10.21652
G1 X89.239 Y157.086 E10.28916
G1 X86.909 Y157.369 E10.36179
G1 X84.714 Y156.536 E10.43442
G1 X83.158 Y154.779 E10.50707
G1 X82.596 Y152.500 E10.57968
G1 X83.158 Y150.222 E10.65229
G1 X84.714 Y148.464 E10.72493
G1 X86.531 Y147.775 E10.78507
G1 X86.909 Y147.631 E10.79756 F1800.000
G1 X89.239 Y147.914 E10.87020
G1 X91.171 Y149.248 E10.94283
G1 X92.227 Y151.260 E11.01314
G1 X91.637 Y151.481 F7800.000
G1 X91.637 Y153.519 E11.07621 F1800.000
G1 X90.689 Y155.325 E11.13931
G1 X89.011 Y156.484 E11.20242
G1 X86.986 Y156.730 E11.26552
G1 X85.080 Y156.007 E11.32862
G1 X83.728 Y154.480 E11.39173
G1 X83.240 Y152.500 E11.45481
G1 X83.728 Y150.521 E11.51789
G1 X85.080 Y148.993 E11.58100
G1 X86.753 Y148.359 E11.63638
G1 X86.986 Y148.270 E11.64410 F1800.000
G1 X89.011 Y148.516 E11.70720
G1 X90.689 Y149.675 E11.77031
G1 X91.602 Y151.414 E11.83108
G1 X92.104 Y151.658 F7800.000
G1 E9.83108 F2400.00000
G92 E0
G1 X74.267 Y135.868 F7800.000
G1 E2.00000 F2400.00000
G1 X73.782 Y136.266 E2.01942 F1800.000
G1 X73.228 Y136.563 E2.03888
G1 X72.626 Y136.746 E2.05833
G1 X72.000 Y136.808 E2.07780
G1 X71.374 Y136.746 E2.09727
G1 X70.772 Y136.563 E2.11672
G1 X70.218 Y136.266 E2.13618
G1 X69.733 Y135.868 E2.15560
G1 X69.333 Y135.382 E2.17506
G1 X69.037 Y134.827 E2.19455
G1 X68.854 Y134.226 E2.21398
G1 X68.792 Y133.600 E2.23344
G1 X68.854 Y132.974 E2.25289
G1 X69.037 Y132.373 E2.27233
G1 X69.333 Y131.818 E2.29181
G1 X69.733 Y131.332 E2.31127
G1 X70.218 Y130.934 E2.33070
G1 X70.772 Y130.637 E2.35016
G1 X71.374 Y130.455 E2.36960
G1 X71.960 Y130.396 E2.38783 F1800.000
G1 X72.614 Y130.451 E2.40813
G1 X73.228 Y130.637 E2.42798
G1 X73.782 Y130.934 E2.44744
G1 X74.267 Y131.332 E2.46686
G1 X74.667 Y131.818 E2.48632
G1 X74.963 Y132.373 E2.50581
G1 X75.146 Y132.974 E2.52524
G1 X75.207 Y133.600 E2.54470
G1 X75.146 Y134.226 E2.56415
G1 X74.963 Y134.827 E2.58359
G1 X74.667 Y135.382 E2.60307
G1 X74.315 Y135.810 E2.62021
G1 X73.824 Y135.424 F7800.000
G1 X73.433 Y135.744 E2.63584 F1800.000
G1 X72.987 Y135.983 E2.65149
G1 X72.503 Y136.130 E2.66713
G1 X72.000 Y136.180 E2.68279
G1 X71.496 Y136.130 E2.69844
G1 X71.013 Y135.983 E2.71409
G1 X70.567 Y135.744 E2.72974
G1 X70.176 Y135.424 E2.74536
G1 X69.855 Y135.033 E2.76101
G1 X69.617 Y134.587 E2.77668
G1 X69.470 Y134.103 E2.79231
G1 X69.420 Y133.600 E2.80796
G1 X69.470 Y133.097 E2.82360
G1 X69.617 Y132.613 E2.83923
G1 X69.855 Y132.167 E2.85490
G1 X70.176 Y131.776 E2.87055
G1 X70.567 Y131.456 E2.88618
G1 X71.013 Y131.217 E2.90183
G1 X71.496 Y131.070 E2.91747
G1 X71.965 Y131.024 E2.93203 F1800.000
G1 X72.496 Y131.068 E2.94852
G1 X72.987 Y131.217 E2.96441
G1 X73.433 Y131.456 E2.98006
G1 X73.824 Y131.776 E2.99569
G1 X74.145 Y132.167 E3.01133
G1 X74.383 Y132.613 E3.02700
G1 X74.530 Y133.097 E3.04263
G1 X74.580 Y133.600 E3.05828
G1 X74.530 Y134.103 E3.07392
G1 X74.383 Y134.587 E3.08956
G1 X74.145 Y135.033 E3.10522
G1 X73.871 Y135.366 E3.11855
G1 X73.380 Y134.980 F7800.000
G1 X73.084 Y135.222 E3.13038 F1800.000
G1 X72.747 Y135.403 E3.14222
G1 X72.381 Y135.514 E3.15406
G1 X72.000 Y135.552 E3.16590
G1 X71.619 Y135.514 E3.17774
G1 X71.253 Y135.403 E3.18958
G1 X70.916 Y135.222 E3.20142
G1 X70.620 Y134.980 E3.21325
G1 X70.377 Y134.685 E3.22508
G1 X70.197 Y134.347 E3.23693
G1 X70.086 Y133.981 E3.24876
G1 X70.048 Y133.600 E3.26060
G1 X70.086 Y133.219 E3.27243
G1 X70.197 Y132.854 E3.28426
G1 X70.377 Y132.516 E3.29612
G1 X70.620 Y132.220 E3.30795
G1 X70.916 Y131.978 E3.31978
G1 X71.253 Y131.797 E3.33162
G1 X71.619 Y131.686 E3.34346
G1 X71.970 Y131.651 E3.35436 F1800.000
G1 X72.378 Y131.685 E3.36704
G1 X72.747 Y131.797 E3.37896
G1 X73.084 Y131.978 E3.39080
G1 X73.380 Y132.220 E3.40263
G1 X73.623 Y132.516 E3.41446
G1 X73.803 Y132.854 E3.42632
G1 X73.914 Y133.219 E3.43815
G1 X73.952 Y133.600 E3.44998
G1 X73.914 Y133.981 E3.46182
G1 X73.803 Y134.347 E3.47365
G1 X73.623 Y134.685 E3.48550
G1 X73.428 Y134.922 E3.49501
G1 X73.467 Y135.352 F7800.000
G1 E1.49501 F2400.00000
G92 E0
G1 X72.000 Y42.808 F7800.000
G1 E2.00000 F2400.00000
G1 X71.374 Y42.746 E2.01945 F1800.000
G1 X70.773 Y42.563 E2.03891
G1 X70.218 Y42.267 E2.05836
G1 X69.732 Y41.868 E2.07782
G1 X69.333 Y41.382 E2.09728
G1 X69.037 Y40.828 E2.11673
G1 X68.854 Y40.226 E2.13619
G1 X68.793 Y39.600 E2.15564
G1 X68.854 Y38.974 E2.17510
G1 X69.037 Y38.373 E2.19455
G1 X69.333 Y37.818 E2.21401
G1 X69.732 Y37.332 E2.23347
G1 X70.218 Y36.933 E2.25292
G1 X70.773 Y36.637 E2.27238
G1 X71.374 Y36.454 E2.29183
G1 X71.960 Y36.397 E2.31005 F1800.000
G1 X72.614 Y36.451 E2.33033
G1 X73.227 Y36.637 E2.35018
G1 X73.782 Y36.933 E2.36964
G1 X74.268 Y37.332 E2.38909
G1 X74.667 Y37.818 E2.40855
G1 X74.963 Y38.373 E2.42801
G1 X75.146 Y38.974 E2.44746
G1 X75.207 Y39.600 E2.46692
G1 X75.146 Y40.226 E2.48637
G1 X74.963 Y40.828 E2.50583
G1 X74.667 Y41.382 E2.52528
G1 X74.268 Y41.868 E2.54474
G1 X73.782 Y42.267 E2.56420
G1 X73.227 Y42.563 E2.58365
G1 X72.626 Y42.746 E2.60311
G1 X72.075 Y42.800 E2.62024
G1 X72.000 Y42.180 F7800.000
G1 X71.497 Y42.130 E2.63589 F1800.000
G1 X71.013 Y41.983 E2.65153
G1 X70.567 Y41.745 E2.66718
G1 X70.176 Y41.424 E2.68283
G1 X69.855 Y41.033 E2.69848
G1 X69.617 Y40.587 E2.71412
G1 X69.470 Y40.103 E2.72977
G1 X69.420 Y39.600 E2.74542
G1 X69.470 Y39.097 E2.76106
G1 X69.617 Y38.613 E2.77671
G1 X69.855 Y38.167 E2.79235
G1 X70.176 Y37.776 E2.80801
G1 X70.567 Y37.455 E2.82365
G1 X71.013 Y37.217 E2.83930
G1 X71.497 Y37.070 E2.85495
G1 X71.965 Y37.024 E2.86950 F1800.000
G1 X72.496 Y37.068 E2.88598
G1 X72.987 Y37.217 E2.90187
G1 X73.433 Y37.455 E2.91752
G1 X73.824 Y37.776 E2.93316
G1 X74.145 Y38.167 E2.94881
G1 X74.383 Y38.613 E2.96446
G1 X74.530 Y39.097 E2.98010
G1 X74.580 Y39.600 E2.99575
G1 X74.530 Y40.103 E3.01140
G1 X74.383 Y40.587 E3.02705
G1 X74.145 Y41.033 E3.04269
G1 X73.824 Y41.424 E3.05834
G1 X73.433 Y41.745 E3.07399
G1 X72.987 Y41.983 E3.08963
G1 X72.503 Y42.130 E3.10528
G1 X72.075 Y42.172 E3.11861
G1 X72.000 Y41.552 F7800.000
G1 X71.619 Y41.514 E3.13044 F1800.000
G1 X71.253 Y41.403 E3.14228
G1 X70.916 Y41.223 E3.15412
G1 X70.620 Y40.980 E3.16596
G1 X70.377 Y40.684 E3.17780
G1 X70.197 Y40.347 E3.18963
G1 X70.086 Y39.981 E3.20147
